Target/Image/Page/index/Meta.svg

<svg width="1280" height="258" viewBox="0 0 1280 258" fill="none" xmlns="http://www.w3.org/2000/svg">
	<g clip-path="url(#clip0_1_15)">
		<path
			d="M469.792 8.15503H518.306L600.798 157.376L683.289 8.15503H730.753V253.353H691.171V65.4274L618.838 195.557H581.707L509.374 65.4274V253.353H469.792V8.15503Z"
			fill="#A9B5C6" />
		<path
			d="M858.427 257.733C840.094 257.733 823.981 253.675 810.088 245.56C796.192 237.445 785.363 226.207 777.599 211.846C769.833 197.483 765.951 181.02 765.953 162.456C765.953 143.658 769.747 127.019 777.337 112.54C784.926 98.0638 795.464 86.7377 808.95 78.5616C822.436 70.3907 837.936 66.3042 855.45 66.302C872.846 66.302 887.821 70.4176 900.374 78.6488C912.923 86.8823 922.585 98.4128 929.359 113.24C936.13 128.07 939.516 145.467 939.517 165.433V176.29H805.184C807.637 191.238 813.679 203.002 823.312 211.581C832.945 220.164 845.117 224.455 859.828 224.454C871.62 224.454 881.779 222.703 890.303 219.2C898.825 215.697 906.823 210.385 914.298 203.263L935.314 229.008C914.412 248.159 888.783 257.734 858.427 257.733ZM887.326 112.276C879.034 103.812 868.175 99.5796 854.75 99.578C841.671 99.578 830.725 103.899 821.911 112.54C813.093 121.181 807.518 132.798 805.184 147.393H901.512C900.344 132.447 895.615 120.742 887.326 112.276Z"
			fill="#A9B5C6" />
		<path
			d="M987.51 103.083H951.08V70.6814H987.51V17.0889H1025.69V70.6814H1081.03V103.083H1025.69V185.224C1025.69 198.884 1028.03 208.633 1032.7 214.471C1037.36 220.312 1045.36 223.231 1056.69 223.228C1061.71 223.228 1065.97 223.024 1069.48 222.616C1072.98 222.209 1076.83 221.654 1081.03 220.951V253.002C1076.24 254.389 1071.35 255.443 1066.41 256.156C1060.76 256.988 1055.05 257.397 1049.33 257.381C1008.12 257.381 987.508 234.847 987.51 189.778V103.083Z"
			fill="#A9B5C6" />
		<path
			d="M1280 253.353H1242.52V227.783C1235.86 237.358 1227.4 244.743 1217.12 249.938C1206.85 255.131 1195.17 257.73 1182.1 257.733C1165.98 257.733 1151.71 253.616 1139.27 245.384C1126.84 237.152 1117.06 225.827 1109.94 211.407C1102.82 196.987 1099.25 180.495 1099.25 161.93C1099.25 143.249 1102.87 126.727 1110.11 112.364C1117.35 98.0036 1127.36 86.7365 1140.15 78.5619C1152.94 70.391 1167.62 66.3044 1184.2 66.3022C1196.69 66.3022 1207.9 68.7253 1217.82 73.5716C1227.62 78.3077 1236.1 85.3735 1242.52 94.1497V70.6817H1280V253.353ZM1241.82 134.608C1237.73 124.216 1231.28 116.013 1222.47 109.999C1213.65 103.987 1203.46 100.981 1191.9 100.981C1175.56 100.981 1162.54 106.468 1152.85 117.443C1143.16 128.419 1138.31 143.248 1138.31 161.93C1138.31 180.73 1142.98 195.617 1152.32 206.592C1161.66 217.567 1174.33 223.055 1190.33 223.054C1202.12 223.054 1212.63 220.018 1221.85 213.946C1231.08 207.878 1237.73 199.704 1241.82 189.427L1241.82 134.608Z"
			fill="#A9B5C6" />
		<path
			d="M41.9375 170.073C41.9375 184.898 45.1916 196.28 49.4447 203.166C55.0211 212.186 63.3383 216.007 71.8177 216.007C82.7544 216.007 92.7595 213.293 112.04 186.626C127.487 165.252 145.688 135.251 157.934 116.442L178.673 84.5773C193.08 62.4474 209.755 37.8464 228.874 21.1713C244.483 7.56123 261.32 0 278.265 0C306.714 0 333.813 16.486 354.552 47.4059C377.249 81.2692 388.267 123.922 388.267 167.939C388.267 194.106 383.109 213.333 374.332 228.523C365.853 243.213 349.327 257.89 321.526 257.89V216.007C345.33 216.007 351.271 194.133 351.271 169.1C351.271 133.428 342.954 93.8396 324.631 65.5527C311.629 45.4886 294.778 33.2286 276.24 33.2286C256.189 33.2286 240.054 48.351 221.921 75.3147C212.28 89.6405 202.383 107.099 191.271 126.798L179.038 148.469C154.464 192.041 148.24 201.965 135.953 218.343C114.417 247.021 96.027 257.89 71.8177 257.89C43.0987 257.89 24.9383 245.455 13.6911 226.714C4.50966 211.443 0 191.406 0 168.574L41.9375 170.073Z"
			fill="#A9B5C6" />
		<path
			d="M33.0667 50.3627C52.2936 20.7256 80.0405 0 111.865 0C130.295 0 148.618 5.4549 167.75 21.0769C188.679 38.1571 210.984 66.282 238.812 112.635L248.79 129.269C272.878 169.398 286.582 190.042 294.603 199.777C304.918 212.28 312.142 216.007 321.526 216.007C345.33 216.007 351.271 194.133 351.271 169.1L388.267 167.939C388.267 194.106 383.109 213.333 374.332 228.523C365.853 243.213 349.327 257.89 321.526 257.89C304.243 257.89 288.932 254.137 272 238.164C258.984 225.904 243.767 204.125 232.061 184.547L197.239 126.38C179.767 97.1881 163.74 75.4227 154.464 65.5662C144.486 54.9671 131.659 42.167 111.19 42.167C94.6228 42.167 80.5536 53.7924 68.7797 71.5747L33.0667 50.3627Z"
			fill="#A9B5C6" />
		<path
			d="M111.19 42.167C94.6228 42.167 80.5536 53.7924 68.7797 71.5747C52.1316 96.7021 41.9375 134.13 41.9375 170.073C41.9375 184.898 45.1916 196.28 49.4447 203.166L13.6911 226.714C4.50966 211.443 0 191.406 0 168.574C0 127.055 11.3957 83.7805 33.0667 50.3627C52.2936 20.7256 80.0405 0 111.865 0L111.19 42.167Z"
			fill="#A9B5C6" />
	</g>
	<defs>
		<clipPath id="clip0_1_15">
			<rect width="1280" height="257.89" fill="white" />
		</clipPath>
	</defs>
</svg>

<svg xmlns="http://www.w3.org/2000/svg" width="1280" height="258" fill="none"><g fill="#A9B5C6" clip-path="url(#a)"><path d="M469.792 8.155h48.514l82.492 149.221L683.289 8.155h47.464v245.198h-39.582V65.427l-72.333 130.13h-37.131l-72.333-130.13v187.926h-39.582zm388.635 249.578q-27.5 0-48.339-12.173-20.843-12.173-32.489-33.714-11.649-21.544-11.646-49.39 0-28.197 11.384-49.916 11.384-21.714 31.613-33.978 20.229-12.257 46.5-12.26 26.094 0 44.924 12.347 18.824 12.35 28.985 34.591 10.156 22.244 10.158 52.193v10.857H805.184q3.679 22.422 18.128 35.291 14.45 12.875 36.516 12.873 17.689 0 30.475-5.254 12.783-5.254 23.995-15.937l21.016 25.745q-31.353 28.727-76.887 28.725m28.899-145.457Q874.888 99.58 854.75 99.578q-19.618 0-32.839 12.962-13.227 12.961-16.727 34.853h96.328q-1.752-22.418-14.186-35.117m100.184-9.193h-36.43V70.681h36.43V17.09h38.18v53.59h55.34v32.402h-55.34v82.141c0 13.66 2.34 23.409 7.01 29.247 4.66 5.841 12.66 8.76 23.99 8.757 5.02 0 9.28-.204 12.79-.612q5.25-.61 11.55-1.665v32.051a108 108 0 0 1-14.62 3.154c-5.65.832-11.36 1.241-17.08 1.225-41.21 0-61.822-22.534-61.82-67.603zM1280 253.353h-37.48v-25.57c-6.66 9.575-15.12 16.96-25.4 22.155-10.27 5.193-21.95 7.792-35.02 7.795-16.12 0-30.39-4.117-42.83-12.349-12.43-8.232-22.21-19.557-29.33-33.977s-10.69-30.912-10.69-49.477q0-28.022 10.86-49.566c7.24-14.36 17.25-25.627 30.04-33.802 12.79-8.171 27.47-12.258 44.05-12.26 12.49 0 23.7 2.423 33.62 7.27a66.4 66.4 0 0 1 24.7 20.578V70.682H1280zm-38.18-118.745q-6.135-15.588-19.35-24.609-13.23-9.018-30.57-9.018c-16.34 0-29.36 5.487-39.05 16.462-9.69 10.976-14.54 25.805-14.54 44.487q0 28.2 14.01 44.662 14.01 16.463 38.01 16.462c11.79 0 22.3-3.036 31.52-9.108 9.23-6.068 15.88-14.242 19.97-24.519zM41.938 170.073c0 14.825 3.254 26.207 7.507 33.093 5.576 9.02 13.893 12.841 22.373 12.841 10.936 0 20.942-2.714 40.222-29.381 15.447-21.374 33.648-51.375 45.894-70.184l20.739-31.865c14.407-22.13 31.082-46.73 50.201-63.406C244.483 7.561 261.32 0 278.265 0c28.449 0 55.548 16.486 76.287 47.406 22.697 33.863 33.715 76.516 33.715 120.533 0 26.167-5.158 45.394-13.935 60.584-8.479 14.69-25.005 29.367-52.806 29.367v-41.883c23.804 0 29.745-21.874 29.745-46.907 0-35.672-8.317-75.26-26.64-103.547-13.002-20.064-29.853-32.324-48.391-32.324-20.051 0-36.186 15.122-54.319 42.086-9.641 14.326-19.538 31.784-30.65 51.483l-12.233 21.671c-24.574 43.572-30.798 53.496-43.085 69.874-21.536 28.678-39.926 39.547-64.135 39.547-28.72 0-46.88-12.435-58.127-31.176C4.51 211.443 0 191.406 0 168.574z"/><path d="M33.067 50.363C52.294 20.726 80.04 0 111.865 0c18.43 0 36.753 5.455 55.885 21.077 20.929 17.08 43.234 45.205 71.062 91.558l9.978 16.634c24.088 40.129 37.792 60.773 45.813 70.508 10.315 12.503 17.539 16.23 26.923 16.23 23.804 0 29.745-21.874 29.745-46.907l36.996-1.161c0 26.167-5.158 45.394-13.935 60.584-8.479 14.69-25.005 29.367-52.806 29.367-17.283 0-32.594-3.753-49.526-19.726-13.016-12.26-28.233-34.039-39.939-53.617l-34.822-58.167c-17.472-29.192-33.499-50.957-42.775-60.814-9.978-10.599-22.805-23.399-43.274-23.399-16.567 0-30.636 11.625-42.41 29.408z"/><path d="M111.19 42.167c-16.567 0-30.636 11.625-42.41 29.408-16.648 25.127-26.842 62.555-26.842 98.498 0 14.825 3.254 26.207 7.507 33.093L13.69 226.714C4.51 211.443 0 191.406 0 168.574 0 127.055 11.396 83.78 33.067 50.363 52.294 20.726 80.04 0 111.865 0z"/></g><defs><clipPath id="a"><path fill="#fff" d="M0 0h1280v257.89H0z"/></clipPath></defs></svg>
